packages/blockchain-info-components/src/Images/img/printer.svg

<svg height="49" viewBox="0 0 46 49" width="46" xmlns="http://www.w3.org/2000/svg"><g fill="none" transform="translate(2 2)"><path d="m37.8413732 11.412h-4.4083525v-11.412h-24.8660414v11.412h-4.40835251c-2.29311626 0-4.15862679 1.8825-4.15862679 4.196v17.383c0 2.314 1.86551053 4.196 4.15862679 4.196h4.40835251v7.813h24.8660414v-7.813h4.4083525c2.2931163 0 4.1586268-1.8825 4.1586268-4.196v-17.383c0-2.3135-1.8655105-4.196-4.1586268-4.196zm-28.26211289-10.3905h22.84197489v10.3905h-22.84197489zm22.84197489 42.957h-22.84197489v-15.1155h22.84197489zm8.060591-10.9875c0 1.469-1.1847106 2.6645-2.640453 2.6645h-4.4083525v-8.341h-24.8660414v8.3405h-4.40835251c-1.45623783 0-2.64045302-1.1955-2.64045302-2.6645v-17.3825c0-1.469 1.18471068-2.6645 2.64045302-2.6645h33.68225091c1.4562379 0 2.640453 1.1955 2.640453 2.6645v17.383z" fill="#5f5f5f"/><circle cx="5.5" cy="16.5" fill="#4a4a4a" r="1.5"/></g></svg>

<?xml version="1.0" encoding="UTF-8"?>
<svg width="46px" height="49px" viewBox="0 0 46 49" version="1.1" xmlns="http://www.w3.org/2000/svg" xmlns:xlink="http://www.w3.org/1999/xlink">
    <!-- Generator: Sketch 48.2 (47327) - http://www.bohemiancoding.com/sketch -->
    <title>Printer</title>
    <desc>Created with Sketch.</desc>
    <defs></defs>
    <g id="Page-1" stroke="none" stroke-width="1" fill="none" fill-rule="evenodd">
        <g id="Printer" fill-rule="nonzero">
            <g id="Printer-Copy" transform="translate(2.000000, 2.000000)">
                <path d="M37.8413732,11.412 L33.4330207,11.412 L33.4330207,0 L8.5669793,0 L8.5669793,11.412 L4.15862679,11.412 C1.86551053,11.412 0,13.2945 0,15.608 L0,32.991 C0,35.305 1.86551053,37.187 4.15862679,37.187 L8.5669793,37.187 L8.5669793,45 L33.4330207,45 L33.4330207,37.187 L37.8413732,37.187 C40.1344895,37.187 42,35.3045 42,32.991 L42,15.608 C42,13.2945 40.1344895,11.412 37.8413732,11.412 Z M9.57926031,1.0215 L32.4212352,1.0215 L32.4212352,11.412 L9.57926031,11.412 L9.57926031,1.0215 Z M32.4212352,43.9785 L9.57926031,43.9785 L9.57926031,28.863 L32.4212352,28.863 L32.4212352,43.9785 Z M40.4818262,32.991 C40.4818262,34.46 39.2971156,35.6555 37.8413732,35.6555 L33.4330207,35.6555 L33.4330207,27.3145 L8.5669793,27.3145 L8.5669793,35.655 L4.15862679,35.655 C2.70238896,35.655 1.51817377,34.4595 1.51817377,32.9905 L1.51817377,15.608 C1.51817377,14.139 2.70288445,12.9435 4.15862679,12.9435 L37.8408777,12.9435 C39.2971156,12.9435 40.4813307,14.139 40.4813307,15.608 L40.4813307,32.991 L40.4818262,32.991 Z" id="Shape" fill="#5F5F5F"></path>
                <circle id="Oval" fill="#4A4A4A" cx="5.5" cy="16.5" r="1.5"></circle>
            </g>
        </g>
    </g>
</svg>
